X:1
T:8. Dance Song: TIle Lovers Bill alld Coo
T:18. Former Flame
T:For Children Nr 18 , Sz 42 
T:Béla Bartók Revised and Arranged by the Composer, January 1945 
T:Book 2 (after Slovakian Folksongs)
%%score { ( 1 3 ) | 2 }
L:1/8
Q:1/4=100
M:2/4
K:C
V:1 treble nm="Piano" snm="Pno."
V:3 treble 
V:2 bass 
V:1
"^Sostenuto"!<(! (E/^F/^G/^A/!<)!!f! !^!B2- |!>(! B2) B2- | B2 B2- | B2 B2-!>)! | %4
[Q:1/4=130]"^Allegro Vivace""^leggiero"!mf! B.[E^GB] z .[EGB] | z .[E^GB]z.[EGB] | %6
 z .!1!!4!!5![^DAB]z.[DAB] | z .[E^GB]z.[EGB] |!<(! z .[^DAB]z.[DAB] | z!<)! !^!!tenuto![E^GB]2 z | %10
 z .[^DAB]z.[DAB] | z .[E^GB]z.[EGB] | z .[^DAB]z.[^FAB] | z .[E^GB]z.[EGB] | %14
!<(! z .[^DAB]z.[DAB] | z!<)! !^![E^GB]2 z |!mf! !tenuto!!3!^f2 .f.^g | .^f.!1!e !tenuto!!3!^d2 | %18
 .e.^d !tenuto!^c2 | .B.^d !tenuto!^f2 |!<(! .e.^d !tenuto!^c2 | !^!B3!<)! z | %22
!mp! .e.^d !tenuto!^c2 | .B.^d !tenuto!^f2 | .e.^d(!2!^c!1!^A) | .!1!B.^d"_cresc." !tenuto!^f2 | %26
 .e.^d !tenuto!^c2 |!f!!>(! !^!B3 z!>)! |!p! z .[GBd]z.[GBd] | z .[GBd]z.[GBd] | z .[^Fcd]z.[Fcd] | %31
 z .[GBd]z.[GBd] | z!p! .[^Fcd]z.[Fcd] | z !tenuto![GBd]2 z | %34
!mp! z[Q:1/4=90]"^T""_ritenuto"!>(! (^c!>)!B) !tenuto![^DAB] | %35
"_acceler."[Q:1/4=135]"^T" z .[E^GB]z.[EGB] | z .[^DAB]z.[^FAB] | z"_cresc." .[E^GB]z.[EGB] | %38
"^a tempo"[Q:1/4=130]"^T" z .[^DAB]z.[DAB] | z!f! !tenuto![E^GB]2 z |] %40
V:2
 z4 | z4 | z4 | z4 | !tenuto!!1!B,2 .!1!B,.!2!^C | .!1!B,.A, !tenuto!^G,2 | .A,.^G, .^F,2 | %7
 .E,.^G, !tenuto!B,2 | .A,.^G, .^F,2 | !^!E,3 z | .A,.^G, !tenuto!^F,2 | .E,.^G, !tenuto!!2!B,2 | %12
 .!1!A,.^G,(!>!^F,^D,) | .!4!E,.!2!^G, !tenuto!!1!B,2 | .A,.^G, .^F,2 | !^!E,3 z | %16
 z .[B,,^F,]z.[B,,F,] | z .[B,,^F,]z.[B,,F,] | z .[B,,E,^F,]z.[B,,E,F,] | %19
 z .[B,,^D,^F,]z.[B,,D,F,] | z .[B,,E,^F,]z.[B,,E,F,] | z !^![B,,^D,^F,]2 z | %22
 z .!4!!2!!1![^G,B,E].[G,B,E] z | z .!5!!2!!1![^F,B,^D]z.[F,B,D] | z .[=G,B,E]z.[G,B,E] | %25
 z .[^F,B,^D]z.[F,B,D] | z .!5!!4!!1![^F,^G,E]z.!5!!3!!1![F,^A,E] | z !^!!2!!1![B,^D]2 z | %28
 !tenuto!!1!=D2 .!1!D.!2!E | .!1!D.C !tenuto!B,2 | .C.B, !tenuto!A,2 | .G,.B, !tenuto!D2 | %32
 .C.B, !tenuto!A,2 | G,3 z | .A,,.^G,, !tenuto!^F,,2 | .E,,.^G,, !tenuto!B,,2 | %36
 .A,,.^G,,(^F,,^D,,) | .E,,.^G,, !tenuto!B,,2 | .A,,.^G,, !tenuto!^F,,2 | !tenuto!E,,3 z |] %40
V:3
 x4 | x4 | x4 | x4 | x4 | x4 | x4 | x4 | x4 | x4 | x4 | x4 | x4 | x4 | x4 | x4 | x4 | x4 | x4 | %19
 x4 | x4 | x x x2 | x4 | x4 | x4 | x4 | x4 | x4 | x4 | x4 | x4 | x4 | x4 | x4 | x [^DA]2 x | x4 | %36
 x4 | x4 | x4 | x4 |] %40

